src/lib/images/icons/twitter.svg

<svg width="38" height="30" viewBox="0 0 38 30" fill="none" xmlns="http://www.w3.org/2000/svg">
<path d="M37.6979 3.57439C36.3403 4.16955 34.8871 4.57901 33.3553 4.76471C34.9182 3.82699 36.1131 2.34371 36.6829 0.576701C35.2169 1.43022 33.5952 2.04844 31.8709 2.39792C30.4961 0.926182 28.5307 0 26.3496 0C22.1685 0 18.7798 3.38754 18.7798 7.56286C18.7798 8.16378 18.8525 8.74048 18.9782 9.2872C12.6887 8.99308 7.11312 5.97116 3.38417 1.406C2.72904 2.51788 2.35649 3.80969 2.35649 5.21569C2.35649 7.8466 3.69559 10.1534 5.71981 11.5098C4.48221 11.474 3.31728 11.1315 2.29651 10.5675V10.6586C2.29651 14.3276 4.9032 17.3864 8.36341 18.083C7.7325 18.2503 7.05891 18.3472 6.37495 18.3472C5.88936 18.3472 5.4257 18.2999 4.96318 18.2145C5.93665 21.218 8.72327 23.4048 12.0451 23.4706C9.4626 25.4948 6.18925 26.7013 2.66214 26.7013C2.06122 26.7013 1.46145 26.6724 0.859375 26.5998C4.22385 28.7451 8.19501 30 12.4845 30C26.4026 30 34.0082 18.4717 34.0082 8.48789C34.0082 8.16955 34.0082 7.84544 33.9839 7.52018C35.4684 6.46251 36.7533 5.12226 37.7683 3.60323L37.6979 3.57439Z" fill="white"/>
</svg>

<svg width="38" height="30" fill="none" xmlns="http://www.w3.org/2000/svg"><path d="M37.698 3.574a15.408 15.408 0 0 1-4.343 1.19A7.616 7.616 0 0 0 36.683.578a15.782 15.782 0 0 1-4.812 1.82A7.539 7.539 0 0 0 26.35 0c-4.181 0-7.57 3.388-7.57 7.563 0 .6.072 1.177.198 1.724-6.29-.294-11.865-3.316-15.594-7.881a7.449 7.449 0 0 0-1.028 3.81A7.56 7.56 0 0 0 5.72 11.51a7.519 7.519 0 0 1-3.423-.942v.09a7.574 7.574 0 0 0 6.066 7.425 7.792 7.792 0 0 1-1.988.264c-.486 0-.95-.047-1.412-.133a7.602 7.602 0 0 0 7.082 5.257 15.189 15.189 0 0 1-9.383 3.23c-.6 0-1.2-.029-1.803-.101A21.518 21.518 0 0 0 12.485 30c13.918 0 21.523-11.528 21.523-21.512 0-.318 0-.643-.024-.968a15.146 15.146 0 0 0 3.784-3.917l-.07-.029z" fill="#fff"/></svg>
